!!!COM: Joplin, Scott
!!!CDT: 1868/11/24/-1917/04/01/
!!!OTL: Combination March
!!!ODT: 1896///
**kern	**kern	**dynam
*staff2	*staff1	*staff1/2
*clefF4	*clefG2	*clefG2
*Ipiano	*Ipiano	*Ipiano
*>[I,A,A1,A,A2,B,C,C1,C,C2,D,E,E1,E,E2,F,F1,F,F2]	*>[I,A,A1,A,A2,B,C,C1,C,C2,D,E,E1,E,E2,F,F1,F,F2]	*>[I,A,A1,A,A2,B,C,C1,C,C2,D,E,E1,E,E2,F,F1,F,F2]
*>norep[I,A,A2,B,C,C2,D,E,E2,F,F2]	*>norep[I,A,A2,B,C,C2,D,E,E2,F,F2]	*>norep[I,A,A2,B,C,C2,D,E,E2,F,F2]
*>I	*>I	*>I
*k[b-e-]	*k[b-e-]	*k[b-e-]
*met(C)	*met(C)	*met(C)
*M4/4	*M4/4	*M4/4
*MM100	*MM100	*MM100
4r	4f	mp
=1	=1	=1
*	*^	*
2B- BB-	2b-	4r	.
.	.	4f d	.
2A- AA-	2dd	4r	.
.	.	4b- f d	.
=2	=2	=2	=2
2G GG	2ee-	4r	.
.	.	4b- g e-	<
2G- GG-	2een	4r	.
.	.	4cc# b- en	.
=3	=3	=3	=3
2F FF	2ff	4r	.
.	.	4dd b- f	.
2a e- c A	2r	(8ffL	.
.	.	8ee-J)	.
.	.	4a	.
*	*v	*v	*
=4	=4	=4
4BB-	4b-	.
4d B- F	4r	.
4FF	4r	.
4d B- F	4dd	.
=5!|:	=5!|:	=5!|:
*>A	*>A	*>A
*MM120	*MM120	*MM120
4C	4.ee-	.
4e- A F	.	.
.	8dd	.
4FF	4.cc	.
4e- A F	.	.
.	8dd	.
=6	=6	=6
4C	4ee-	.
4e- A F	4ff	.
4FF	2cc	.
4e- A F	.	.
=7	=7	=7
4BB-	4.dd	.
4d B- F	.	.
.	8cc	.
4FF	4.b-	.
4d B- F	.	.
.	8cc	.
=8	=8	=8
4BB-	4dd	.
4d B- F	4ff	.
4D	4f	.
4d B- F	4a-	.
=9	=9	=9
4E-	4.g	.
4e- B- G	.	.
.	8b-	.
4E-	4ee-	.
4e- B- G	4g	.
=10	=10	=10
4D	4.b-	.
4d B- F	.	.
.	8dd	.
4D	4ff	.
4d B- F	4f	.
=11	=11	=11
4F FF	(8ffL	.
.	8ee-J)	.
4d B- F	4dd	.
4F FF	(8ee-L	.
.	8ddJ)	.
4e- A F	4cc	.
=12	=12	=12
4BB-	(8b-L	.
.	8f	.
4d B- F	8f#	.
.	8gJ	.
4FF	8aL	.
.	8b-	.
4d B- F	8cc	.
.	8ddJ)	.
=13	=13	=13
4C	4.ee-	.
4e- A F	.	.
.	8dd	.
4FF	4.cc	.
4e- A F	.	.
.	8dd	.
=14	=14	=14
4C	4ee-	.
4e- A F	4ff	.
4FF	2cc	.
4e- A F	.	.
=15	=15	=15
4BB-	4.dd	.
4d B- F	.	.
.	8cc	.
4FF	4.b-	.
4d B- F	.	.
.	8cc	.
=16	=16	=16
4BB-	4dd	.
4d B- F	4ff	.
4D	4f	.
4d B- F	4a-	.
=17	=17	=17
4E-	4.g	.
4e- B- G	.	.
.	8b-	.
4E-	4ee-	.
4e- B- G	4g	.
=18	=18	=18
4D	4.b-	.
4d B- F	.	.
.	8dd	.
4D	4ff	.
4d B- F	4f	.
=19	=19	=19
4F FF	(8ffL	.
.	8ee-J)	.
4d B- F	4dd	.
4F FF	(8ee-L	.
.	8ddJ)	.
4e- A F	4cc	.
=20	=20	=20
*>A1	*>A1	*>A1
4B- BB-	4b- f d	.
4F	4b- f d	.
4B- BB-	4b- f d	.
4r	4dd	.
=21:|!	=21:|!	=21:|!
*>A2	*>A2	*>A2
4B- BB-	4b- f d	.
4F	8b-L f d	.
.	8b-J f d	.
4B- BB-	4b- f d	.
4r	4r	.
=22	=22	=22
*>B	*>B	*>B
8GGL	4dd b-	.
8FF#J	.	.
4GG	4dd b-	.
2D DD	4cc a	.
.	4cc a	.
*clefG2	*	*
=23	=23	=23
4b- g	(8ggL	.
.	8ff#J)	.
4b- g	4gg	.
4a f#	4.ddd dd	.
4a f#	.	.
.	(8ccc# cc#	.
*clefF4	*	*
=24	=24	=24
4r	4ddd) dd	.
4D DD	4r	.
4E- EE-	2r	.
4En EEn	.	.
=25	=25	=25
4F FF	4r	.
4F# FF#	4ddd aa ff# dd	.
4G GG	4ggg ddd bb- gg	.
4r	4r	.
=26	=26	=26
(8FFnL	4cc a	.
8EEnJ)	.	.
4FF	4cc a	.
2C CC	4b- g	.
.	4b- g	.
*clefG2	*	*
=27	=27	=27
4a f	8ffnL	.
.	8eenJ	.
4a f	4ff	.
4g en	4.ccc cc	.
4g e	.	.
.	(8bbn bn	.
*clefF4	*	*
=28	=28	=28
4r	4ccc) cc	.
4C CC	4r	.
4C# CC#	2r	.
4D DD	.	.
=29	=29	=29
4E- EE-	4r	.
4En EEn	4ccc gg een cc	.
4F FF	4fff ccc aa ff	.
4r	4f	.
=30!|:	=30!|:	=30!|:
*>C	*>C	*>C
2B- F	4dd b-	p
.	4f	.
2B- F	4dd b-	.
.	4f	.
=31	=31	=31
2A F	4ee- cc	.
.	4f	.
2A F	4ee- cc	.
.	4f	.
*	*clefF4	*clefF4
=32	=32	=32
4.FF	4.F	f
8BB-	8B-	.
4GG	4G	.
4GG#	4G#	.
=33	=33	=33
4AA	4A	.
4GGn	4Gn	.
4FF	4F	.
*	*clefG2	*clefG2
4r	4f	.
=34	=34	=34
2B- F	4dd b-	p
.	4f	.
2B- F	4dd b-	.
.	4f	.
=35	=35	=35
2d Bn G#	4ff dd	.
.	4f	.
2d B G#	4ff dd	.
.	4f	.
=36	=36	=36
(8AAL	(8AL	f
8BB-	8B-	.
8BBn	8Bn	.
8CJ	8cJ	.
8C#L	8c#L	.
8D	8d	.
8E-	8e-	.
8EnJ)	8enJ)	.
=37	=37	=37
4F	4f	.
4En EEn	4ccc# gg een cc#	.
4D DD	4ddd aa ff dd	.
4r	4f	.
=38	=38	=38
2B- F	4dd b-	p
.	4f	.
2B- F	4dd b-	.
.	4f	.
=39	=39	=39
2A F	4ee- cc	.
.	4f	.
2A F	4ee- cc	.
.	4f	.
*	*clefF4	*clefF4
=40	=40	=40
4.FF	4.F	f
8BB-	8B-	.
4GG	4G	.
4GG#	4G#	.
=41	=41	=41
4AA	4A	.
4GGn	4Gn	.
4FF	4F	.
*	*clefG2	*clefG2
4D DD	4ff b- f	.
=42	=42	=42
4E- EE-	2gg b- g	.
4e- B- G	.	.
4G GG	4bb- ee- b-	.
4G- GG-	4ccc ee- cc	.
=43	=43	=43
4F FF	2ddd bb- dd	.
4d B- F	.	.
4F FF	4fff ddd ff	.
4G GG	4eeen ddd- een	.
=44	=44	=44
4A AA	2eee- ccc ee-	.
4e- c A F	.	.
4F FF	4gg ee- g	.
4e- c A F	4aa ee- a	.
=45	=45	=45
*>C1	*>C1	*>C1
4B- BB-	4bb- ff dd b-	.
4F	4bb- ff dd b-	.
4B- BB-	4bb- ff dd b-	.
4r	4f	.
=46:|!	=46:|!	=46:|!
*>C2	*>C2	*>C2
4B- BB-	4bb- ff dd b-	.
4F	4bb- ff dd b-	.
4B- BB-	4bb- ff dd b-	.
4r	4B-	.
=47	=47	=47
*>D	*>D	*>D
*k[b-e-a-]	*k[b-e-a-]	*k[b-e-a-]
1r	8b-L	.
.	8B-	.
.	8d	.
.	8fJ	.
.	4b-	.
.	4B-	.
=48	=48	=48
1r	8b-L	.
.	8B-	.
.	8e-	.
.	8gJ	.
.	4b-	.
.	8bb-L b-	.
.	8bb-J b-	.
*clefG2	*	*
=49	=49	=49
2f d	4bb- b-	.
.	8bb-L b-	.
.	8bb-J b-	.
2g e-	4bb- b-	.
.	8bb-L b-	.
.	8bb-J b-	.
=50	=50	=50
2a- f	2bb- b-	.
2r	8r	.
.	8b-L	.
.	8ee-	.
.	8ggJ	.
*clefF4	*	*
=51!|:	=51!|:	=51!|:
*>E	*>E	*>E
4E- EE-	2bb- gg b-	.
4e- B- G	.	.
4BB- BBB-	2ccc gg cc	.
4e- B- G	.	.
=52	=52	=52
4E- EE-	4bb- gg b-	.
4e- B- G	8bb-L gg b-	.
.	8bb-J gg b-	.
4BB- BBB-	8bb-L gg b-	.
.	8b-	.
4e- B- G	8ee-	.
.	8ggJ	.
=53	=53	=53
4E- EE-	2bb- gg b-	.
4e- B- G	.	.
4BB- BBB-	2ccc gg cc	.
4e- B- G	.	.
=54	=54	=54
4F FF	4bb- aa- dd b-	.
4d B- A-	8bb-L aa- dd b-	.
.	8bb-J aa- dd b-	.
4BB- BBB-	8bb-L aa- dd b-	.
.	8b-	.
4d B- A-	8dd	.
.	8ffJ	.
=55	=55	=55
4F FF	2bb- aa- dd b-	.
4d B- A-	.	.
4BB- BBB-	2ccc aa- cc	.
4d B- A-	.	.
=56	=56	=56
4F FF	4bb- aa- dd b-	.
4d B- A-	8bb-L aa- dd b-	.
.	8bb-J aa- dd b-	.
4BB- BBB-	8bb-L aa- dd b-	.
.	8bb- b-	.
4d B- A-	8ccc cc	.
.	8ccc#J cc#	.
=57	=57	=57
4F FF	2ddd bb- dd	.
4d B- A-	.	.
4D DD	2ccc aa- cc	.
4d B- A-	.	.
=58	=58	=58
4E- EE-	4bb- gg b-	.
4e- B- G	8bb-L gg b-	.
.	8bb-J gg b-	.
4BB- BBB-	8bb-L gg b-	.
.	8b-	.
4e- B- G	8ee-	.
.	8ggJ	.
=59	=59	=59
4E- EE-	2bb- gg b-	.
4e- B- G	.	.
4BB- BBB-	2ccc gg cc	.
4e- B- G	.	.
=60	=60	=60
4E- EE-	4bb- gg b-	.
4e- B- G	8bb-L gg b-	.
.	8bb-J gg b-	.
4E- EE-	8bb-L gg b-	.
.	8b-	.
4e- B- G	8ee-	.
.	8ggJ	.
=61	=61	=61
4G GG	2bb- gg b-	.
4e- B- G	.	.
4G- GG-	2ccc gg- cc	.
4e- B- G-	.	.
=62	=62	=62
4F FF	4ddd bb- dd	.
4d B- F	8dddL bb- dd	.
.	8dddJ bb- dd	.
4d B- F	4ddd bb- dd	.
4d B- F	(8ddL	.
.	8ee-J)	.
=63	=63	=63
4AAn	4ff	.
4e- c An F	(8ee-L	.
.	8ccJ)	.
4FF	4an	.
4e- c A F	4f	.
=64	=64	=64
4BB-	4gg	.
4d B- F	(8ffL	.
.	8ddJ)	.
4D	4b-	.
4d B- F	4f	.
=65	=65	=65
4AAn	4ff	.
4e- c An F	(8ee-L	.
.	8ccJ)	.
4FF	4an	.
4e- c A F	4f	.
=66	=66	=66
*>E1	*>E1	*>E1
4B- BB-	4b-	.
4F	8b-L f d	.
.	8b-J f d	.
4B- BB-	8b-L f d	.
.	8b-	.
4r	8ee-	.
.	8ggJ	.
=67:|!	=67:|!	=67:|!
*>E2	*>E2	*>E2
4B- BB-	4b-	.
4D	8b-L f d	.
.	8b-J f d	.
4B- BB-	4b- f d	.
4r	4b-	.
=68!|:	=68!|:	=68!|:
4D DD	4.f	.
*>F	*>F	*>F
4d B- A-	.	.
.	8g	.
4BB- BBB-	4a- f	.
4d B- A-	4dd a- f	.
=69	=69	=69
4D DD	2.cc a- f	.
4d B- A-	.	.
4BB- BBB-	.	.
4d B- A-	4r	.
=70	=70	=70
4E- EE-	4.g	.
4e- B- G	.	.
.	8a-	.
4BB- BBB-	4b- g	.
4e- B- G	4ee- g	.
=71	=71	=71
4E- EE-	2.cc g	.
4e- B- G	.	.
4BB- BBB-	.	.
4e- B- G	4r	.
=72	=72	=72
4F FF	8aa-L dd a-	.
.	8aa-J dd a-	.
4d B- A-	4aa- dd a-	.
4BB- BBB-	4.aa- dd a-	.
4d B- A-	.	.
.	8ff f	.
=73	=73	=73
4E- EE-	4ee- e-	.
4e- B- G	4gg g	.
4E- EE-	2bb- b-	.
4e- B- G	.	.
=74	=74	=74
4F FF	8aa-L dd a-	.
.	8aa-J dd a-	.
4d B- A-	4aa- dd a-	.
4BB- BBB-	4.aa- dd a-	.
4d B- A-	.	.
.	8ff# f#	.
=75	=75	=75
4E- EE-	8ggL g	.
.	8eee- ee-	.
4e- B- G	8ddd dd	.
.	8cccJ cc	.
4E- EE-	4bb- b-	.
4e- B- G	4b-	.
=76	=76	=76
4D DD	4.f	.
4d B- A-	.	.
.	8g	.
4BB- BBB-	4a- f	.
4d B- A-	4dd a- f	.
=77	=77	=77
4D DD	2.cc a- f	.
4d B- A-	.	.
4BB- BBB-	.	.
4d B- A-	4r	.
=78	=78	=78
4E- EE-	4.g	.
4e- B- G	.	.
.	8a-	.
4BB- BBB-	4b- g	.
4e- B- G	4ee- g	.
=79	=79	=79
4E- EE-	2.cc g	.
4e- B- G	.	.
4E- EE-	.	.
4e- B- G	4r	.
=80	=80	=80
4C- CC-	8eee-L ee-	.
.	8eee-J ee-	.
4e- An F#	4eee- ee-	.
4C- CC-	4.eee- ee-	.
4e- A F#	.	.
.	8aan an	.
=81	=81	=81
4BB- BBB-	4bb- b-	.
4e- B- G	4ccc cc	.
4GG GGG	2bb- b-	.
4e- B- G	.	.
=82	=82	=82
4BB- BBB-	8aa-L dd a-	.
.	8aa-J dd a-	.
4d B- A-	4aa- dd a-	.
4BB- BBB-	4.aa- dd a-	.
4d B- A-	.	.
.	8ff f	.
=83	=83	=83
*>F1	*>F1	*>F1
4E- EE-	(8ee-L e-	.
.	8B-	.
4r	8Bn	.
.	8cJ	.
2r	8c#L	.
.	8d	.
.	8e-	.
.	8enJ)	.
=84:|!	=84:|!	=84:|!
*>F2	*>F2	*>F2
4E- EE-	4ee- b- g e-	.
4r	4r	.
4E- EE-	4eee- bb- gg ee-	.
==	==	==
*-	*-	*-
!!!ENC: Craig Stuart Sapp
!!!END: 2005/04/08
!!!EEV: 2018/06/01
